symbols/web/crib/materialsymbolsoutlined/crib_wght200grad200_20px.svg

<svg xmlns="http://www.w3.org/2000/svg" height="20" width="20"><path d="M5.875 11.312h8.25q.229 0 .375-.145.146-.146.146-.375V9.708q0-.229-.146-.364-.146-.136-.375-.136H8.146V5.354h-1.5q-.542 0-.917.375t-.375.938v4.125q0 .229.146.375.146.145.375.145ZM10 15.604q.479 0 .896-.052.416-.052.833-.198v-2.583H8.271v2.604q.417.125.833.177.417.052.896.052Zm0 1.458q-1.542 0-3.021-.614-1.479-.615-2.729-1.74l1.062-1.02q.355.312.73.552.375.239.77.448v-1.917h-.937q-.833 0-1.406-.573t-.573-1.406V6.667q0-1.167.802-1.969t1.969-.802h2.937V7.75h4.521q.833 0 1.406.562.573.563.573 1.396v1.084q0 .833-.573 1.406t-1.406.573h-.937v1.917q.395-.209.77-.448.375-.24.73-.552l1.062 1.02q-1.25 1.125-2.729 1.74-1.479.614-3.021.614Zm0-8.729Z"/></svg>

<svg xmlns="http://www.w3.org/2000/svg" height="20" width="20"><path d="M5.875 11.312H14.125Q14.354 11.312 14.5 11.167Q14.646 11.021 14.646 10.792V9.708Q14.646 9.479 14.5 9.344Q14.354 9.208 14.125 9.208H8.146V5.354H6.646Q6.104 5.354 5.729 5.729Q5.354 6.104 5.354 6.667V10.792Q5.354 11.021 5.5 11.167Q5.646 11.312 5.875 11.312ZM10 15.604Q10.479 15.604 10.896 15.552Q11.312 15.5 11.729 15.354V12.771H8.271V15.375Q8.688 15.5 9.104 15.552Q9.521 15.604 10 15.604ZM10 17.062Q8.458 17.062 6.979 16.448Q5.5 15.833 4.25 14.708L5.312 13.688Q5.667 14 6.042 14.24Q6.417 14.479 6.812 14.688V12.771H5.875Q5.042 12.771 4.469 12.198Q3.896 11.625 3.896 10.792V6.667Q3.896 5.5 4.698 4.698Q5.5 3.896 6.667 3.896H9.604V7.75H14.125Q14.958 7.75 15.531 8.312Q16.104 8.875 16.104 9.708V10.792Q16.104 11.625 15.531 12.198Q14.958 12.771 14.125 12.771H13.188V14.688Q13.583 14.479 13.958 14.24Q14.333 14 14.688 13.688L15.75 14.708Q14.5 15.833 13.021 16.448Q11.542 17.062 10 17.062ZM10 8.333Q10 8.333 10 8.333Q10 8.333 10 8.333Q10 8.333 10 8.333Q10 8.333 10 8.333Q10 8.333 10 8.333Q10 8.333 10 8.333Q10 8.333 10 8.333Q10 8.333 10 8.333Z"/></svg>
